app/assets/images/payment_icons/google_pay.svg

<?xml version="1.0" encoding="UTF-8"?>
<svg width="38px" height="23px" viewBox="0 0 38 23" version="1.1" xmlns="http://www.w3.org/2000/svg" xmlns:xlink="http://www.w3.org/1999/xlink">
    <!-- Generator: Sketch 49.1 (51147) - http://www.bohemiancoding.com/sketch -->
    <title>GooglePay_AcceptanceMark_WhiteShape_WithStroke_RGB_62x38pt</title>
    <desc>Created with Sketch.</desc>
    <defs></defs>
    <g id="MOCKUPS" stroke="none" stroke-width="1" fill="none" fill-rule="evenodd">
        <g id="existing-merchant---from-home-card-2" transform="translate(-1123.000000, -813.000000)" fill-rule="nonzero">
            <g id="GooglePay_AcceptanceMark_WhiteShape_WithStroke_RGB_62x38pt" transform="translate(1123.000000, 813.000000)">
                <path d="M34.9354839,0 L2.72741935,0 C1.22389632,0.00671225657 0.00671225657,1.22389632 0,2.72741935 L0,20.2564516 C0.00671225657,21.7599746 1.22389632,22.9771587 2.72741935,22.983871 L34.9354839,22.983871 C36.4437918,22.9838861 37.6684127,21.7647444 37.6751613,20.2564516 L37.6751613,2.72741935 C37.6684127,1.21912657 36.4437918,-1.50975722e-05 34.9354839,0 Z M36.7741935,20.2564516 C36.7741935,21.2719429 35.9509752,22.0951613 34.9354839,22.0951613 L2.72741935,22.0951613 C1.71192804,22.0951613 0.888709677,21.2719429 0.888709677,20.2564516 L0.888709677,2.72741935 C0.905437052,1.72391572 1.72377633,0.919215434 2.72741935,0.919354839 L34.9354839,0.919354839 C35.9509752,0.919354839 36.7741935,1.7425732 36.7741935,2.75806452 L36.7741935,20.2564516 Z" id="Shape" fill="#80868B"></path>
                <path d="M34.9354839,0.919354839 L2.72741935,0.919354839 C1.71192804,0.919354839 0.888709677,1.7425732 0.888709677,2.75806452 L0.888709677,20.2870968 C0.888709677,21.3025881 1.71192804,22.1258065 2.72741935,22.1258065 L34.9354839,22.1258065 C35.9509752,22.1258065 36.7741935,21.3025881 36.7741935,20.2870968 L36.7741935,2.72741935 C36.7574662,1.72391572 35.9391269,0.919215434 34.9354839,0.919354839 Z" id="Shape" fill="#FFFFFF"></path>
                <path d="M18.0929032,11.976129 L18.0929032,15.1754839 L17.0754839,15.1754839 L17.0754839,7.27516129 L19.766129,7.27516129 C20.4172621,7.26486381 21.0457383,7.51404911 21.5129032,7.96774194 C21.9552746,8.38049182 22.2154537,8.95214452 22.2361458,9.55681532 C22.256838,10.1614861 22.0363464,10.7495876 21.6232258,11.1916129 L21.5129032,11.3080645 C21.0427728,11.7550452 20.4146525,11.9974776 19.766129,11.9822581 L18.0929032,11.976129 Z M18.0929032,8.24354839 L18.0929032,11.0322581 L19.7906452,11.0322581 C20.1675198,11.0438885 20.532048,10.8971882 20.7958065,10.6277419 C21.1812517,10.225231 21.2893168,9.63155182 21.0704302,9.11903671 C20.8515435,8.60652161 20.347945,8.27407376 19.7906452,8.27419355 L18.0929032,8.24354839 Z" id="Shape" fill="#5F6368"></path>
                <path d="M24.5774194,9.59193548 C25.2265165,9.56110228 25.8627051,9.78047764 26.3548387,10.2048387 C26.8002552,10.6341812 27.0373108,11.2357658 27.0045161,11.8535484 L27.0045161,15.1877419 L26.036129,15.1877419 L26.036129,14.4216129 L25.9870968,14.4216129 C25.6335308,15.0063855 24.9971807,15.3606903 24.313871,15.3532258 C23.7659111,15.3708096 23.2316095,15.1803005 22.8183871,14.82 C22.4215964,14.496268 22.1956078,14.0081327 22.2054839,13.496129 C22.1819695,12.9778977 22.4102577,12.4802296 22.8183871,12.16 C23.3117436,11.8052576 23.9088375,11.6241894 24.516129,11.6451613 C25.0328947,11.6243166 25.5461833,11.7383808 26.0054839,11.976129 L26.0054839,11.7677419 C26.0123903,11.419331 25.8587031,11.0870954 25.5887097,10.8667742 C25.3208504,10.6233514 24.9699352,10.4917581 24.6080645,10.4990323 C24.0744292,10.4943622 23.5761891,10.7654976 23.2903226,11.216129 L22.3954839,10.6522581 C22.8895907,9.94421552 23.715409,9.54290492 24.5774194,9.59193548 Z M23.2903226,13.5206452 C23.2855906,13.7836257 23.4119459,14.0317417 23.6274194,14.1825806 C23.8504649,14.3587205 24.1277851,14.4518827 24.4119355,14.446129 C24.8409498,14.4445294 25.2523126,14.2751448 25.5580645,13.9741935 C25.862883,13.6882147 26.0359034,13.2889368 26.036129,12.8709677 C25.6511779,12.5973623 25.1834637,12.4652764 24.7122581,12.4970968 C24.3464386,12.4828216 23.9856405,12.5859067 23.6825806,12.7912903 C23.4388023,12.9541661 23.2918176,13.2274658 23.2903226,13.5206452 Z" id="Shape" fill="#5F6368"></path>
                <polygon id="Shape" fill="#5F6368" points="32.5758065 9.76967742 29.1864516 17.5596774 28.1383871 17.5596774 29.4193548 14.8322581 27.1945161 9.76967742 28.2977419 9.76967742 29.9096774 13.6554839 29.9096774 13.6554839 31.4787097 9.76967742"></polygon>
                <path d="M13.9864516,11.2835484 C13.9865697,10.9756227 13.9619746,10.6681841 13.9129032,10.3641935 L9.62258065,10.3641935 L9.62258065,12.1109677 L12.0741935,12.1109677 C11.9730884,12.6720906 11.6477683,13.1678164 11.1732258,13.483871 L11.1732258,14.6177419 L12.6380645,14.6177419 C13.5386133,13.7469034 14.0284871,12.5355791 13.9864516,11.2835484 Z" id="Shape" fill="#4285F4"></path>
                <path d="M9.62870968,15.7209677 C10.7348294,15.7511803 11.8109156,15.35888 12.6380645,14.623871 L11.1732258,13.483871 C10.4593992,13.9416092 9.57440731,14.0446962 8.7744819,13.7632854 C7.97455649,13.4818745 7.34903781,12.8473952 7.07903226,12.0435484 L5.57741935,12.0435484 L5.57741935,13.2141935 C6.3438336,14.7498717 7.91240615,15.7204408 9.62870968,15.7209677 Z" id="Shape" fill="#34A853"></path>
                <path d="M7.07903226,12.0496774 C6.88893651,11.4871307 6.88893651,10.8777081 7.07903226,10.3151613 L7.07903226,9.14451613 L5.57741935,9.14451613 C4.92767025,10.4254329 4.92767025,11.9394058 5.57741935,13.2203226 L7.07903226,12.0496774 Z" id="Shape" fill="#FBBC04"></path>
                <path d="M9.62870968,8.43967742 C10.275992,8.42773224 10.901724,8.6722965 11.3693548,9.12 L12.6687097,7.82677419 C11.8399124,7.0489393 10.7406625,6.62462883 9.60419355,6.64387097 C7.89809112,6.65248607 6.34157501,7.61908968 5.57741935,9.14451613 L7.07903226,10.3151613 C7.43897084,9.20804449 8.46463501,8.4535896 9.62870968,8.43967742 Z" id="Shape" fill="#EA4335"></path>
            </g>
        </g>
    </g>
</svg>

<svg width="38" height="23" xmlns="http://www.w3.org/2000/svg"><g fill-rule="nonzero" fill="none"><path d="M34.935 0H2.727A2.74 2.74 0 0 0 0 2.727v17.53a2.74 2.74 0 0 0 2.727 2.727h32.208a2.74 2.74 0 0 0 2.74-2.728V2.727A2.74 2.74 0 0 0 34.935 0zm1.84 20.256a1.839 1.839 0 0 1-1.84 1.84H2.727a1.839 1.839 0 0 1-1.838-1.84V2.727A1.839 1.839 0 0 1 2.727.92h32.208c1.016 0 1.84.824 1.84 1.84v17.497z" fill="#80868B"/><path d="M34.935.92H2.727A1.839 1.839 0 0 0 .89 2.757v17.53c0 1.015.823 1.838 1.838 1.838h32.208a1.839 1.839 0 0 0 1.84-1.839V2.727A1.839 1.839 0 0 0 34.934.92z" fill="#FFF"/><path d="M18.093 11.976v3.2h-1.018v-7.9h2.691c.651-.011 1.28.238 1.747.692a2.28 2.28 0 0 1 .11 3.224l-.11.116c-.47.447-1.098.69-1.747.674l-1.673-.006zm0-3.732v2.788h1.698c.377.012.741-.135 1.005-.404a1.391 1.391 0 0 0-1.005-2.354l-1.698-.03zM24.577 9.592c.65-.03 1.286.188 1.778.613.445.43.682 1.03.65 1.649v3.334h-.969v-.766h-.049a1.93 1.93 0 0 1-1.673.931 2.17 2.17 0 0 1-1.496-.533 1.667 1.667 0 0 1-.613-1.324 1.606 1.606 0 0 1 .613-1.336 2.746 2.746 0 0 1 1.698-.515c.517-.02 1.03.093 1.49.331v-.208a1.134 1.134 0 0 0-.417-.901 1.416 1.416 0 0 0-.98-.368 1.545 1.545 0 0 0-1.319.717l-.895-.564a2.488 2.488 0 0 1 2.182-1.06zM23.29 13.52a.79.79 0 0 0 .337.662c.223.176.5.269.785.263.429-.001.84-.17 1.146-.472.305-.286.478-.685.478-1.103a2.047 2.047 0 0 0-1.324-.374 1.716 1.716 0 0 0-1.03.294.883.883 0 0 0-.392.73zM32.576 9.77l-3.39 7.79h-1.048l1.281-2.728-2.224-5.062h1.103l1.612 3.885 1.569-3.885z" fill="#5F6368"/><path d="M13.986 11.284c0-.308-.024-.616-.073-.92h-4.29v1.747h2.451a2.096 2.096 0 0 1-.9 1.373v1.134h1.464c.9-.871 1.39-2.082 1.348-3.334z" fill="#4285F4"/><path d="M9.629 15.721a4.352 4.352 0 0 0 3.01-1.097l-1.466-1.14a2.752 2.752 0 0 1-4.094-1.44H5.577v1.17a4.53 4.53 0 0 0 4.052 2.507z" fill="#34A853"/><path d="M7.079 12.05a2.709 2.709 0 0 1 0-1.735v-1.17H5.577a4.505 4.505 0 0 0 0 4.075l1.502-1.17z" fill="#FBBC04"/><path d="M9.629 8.44a2.452 2.452 0 0 1 1.74.68l1.3-1.293a4.37 4.37 0 0 0-3.065-1.183 4.53 4.53 0 0 0-4.027 2.5l1.502 1.171a2.715 2.715 0 0 1 2.55-1.875z" fill="#EA4335"/></g></svg>
